svgs/thin/temperature-empty.svg

<svg xmlns="http://www.w3.org/2000/svg" viewBox="0 0 320 512"><!-- Font Awesome Pro 6.0.0-alpha2 by @fontawesome - https://fontawesome.com License - https://fontawesome.com/license (Commercial License) --><path d="M160 352C133.49 352 112 373.49 112 400S133.49 448 160 448S208 426.51 208 400S186.51 352 160 352ZM160 432C142.355 432 128 417.645 128 400S142.355 368 160 368S192 382.355 192 400S177.645 432 160 432ZM240 322.492V80C240 35.816 204.184 0 160 0S80 35.816 80 80V322.492C60.422 342.623 48 369.697 48 400C48 461.855 98.145 512 160 512S272 461.855 272 400C272 369.697 259.578 342.623 240 322.492ZM160 496C107.064 496 64 452.934 64 400C64 375.426 73.756 351.861 91.471 333.646L96 328.988V80C96 44.711 124.711 16 160 16S224 44.711 224 80V328.988L228.529 333.646C246.244 351.861 256 375.426 256 400C256 452.934 212.936 496 160 496Z"/></svg>

<svg xmlns="http://www.w3.org/2000/svg" viewBox="0 0 320 512"><!--! Font Awesome Pro 6.0.0-alpha3 by @fontawesome - https://fontawesome.com License - https://fontawesome.com/license (Commercial License) --><path d="M160 352c-26.51 0-48 21.49-48 48s21.49 48 48 48S208 426.5 208 400S186.5 352 160 352zM160 432C142.4 432 128 417.6 128 400s14.36-32 32-32s32 14.36 32 32S177.6 432 160 432zM240 322.5V80c0-44.18-35.82-79.1-79.1-79.1S80 35.82 80 80v242.5c-19.58 20.13-32 47.21-32 77.51c0 61.86 50.14 112 112 112S272 461.9 272 400C272 369.7 259.6 342.6 240 322.5zM160 496c-52.94 0-96-43.07-96-96c0-24.57 9.756-48.14 27.47-66.35L96 328.1V80c0-35.29 28.71-64 64-64s64 28.71 64 64v248.1l4.529 4.658C246.2 351.9 256 375.4 256 400C256 452.9 212.9 496 160 496z"/></svg>
